assets/img/braze_icons/modem-02.svg

<svg fill="none" height="24" viewBox="0 0 24 24" width="24" xmlns="http://www.w3.org/2000/svg"><g fill="#801ed7"><path d="m5.10258 1.69119c.41676.36239.46085.99402.09846 1.41078-2.01519 2.31759-2.64832 5.42358-1.89343 8.23863.14305.5334-.17342 1.0818-.70686 1.2248-.53343.1431-1.08184-.1734-1.22489-.7068-.921012-3.4345-.15103-7.23178 2.31593-10.06894.36239-.41677.99402-.46085 1.41079-.09847z"/><path d="m8.07298 5.90402c.34258-.4332.26911-1.06208-.16408-1.40466-.4332-.34258-1.06209-.26912-1.40467.16408-1.40372 1.77505-1.82359 4.06935-1.26551 6.15316.14288.5334.69118.8501 1.22466.7072s.85013-.6912.70725-1.2246c-.39979-1.4928-.09704-3.13142.90235-4.39518z"/><path d="m16.0911 4.49936c-.4332.34258-.5067.97146-.1641 1.40466.9994 1.26376 1.3022 2.90238.9024 4.39518-.1429.5334.1737 1.0817.7072 1.2246s1.0818-.1738 1.2247-.7072c.5581-2.08381.1382-4.37811-1.2655-6.15316-.3426-.4332-.9715-.50666-1.4047-.16408z"/><path d="m20.3047 1.78966c-.3624-.41677-.994-.46085-1.4108-.09847-.4168.36239-.4608.99402-.0985 1.41078 2.0152 2.31759 2.6484 5.42358 1.8935 8.23863-.1431.5334.1734 1.0818.7068 1.2248.5335.1431 1.0819-.1734 1.2249-.7068.921-3.4345.1511-7.23178-2.3159-10.06894z"/><path clip-rule="evenodd" d="m13 9c0-.55228-.4477-1-1-1s-1 .44772-1 1v5h-5.83854c-.52715 0-.98191 0-1.35649.0306-.39534.0323-.78856.1036-1.16694.2964-.56449.2876-1.02343.7465-1.31105 1.311-.19279.3784-.26411.7716-.29641 1.167-.030603.3745-.030587.8293-.03057 1.3565v.677c-.000017.5272-.000033.982.03057 1.3565.0323.3954.10362.7886.29641 1.167.28762.5645.74656 1.0234 1.31105 1.311.37838.1928.7716.2641 1.16694.2964.37454.0306.82936.0306 1.35644.0306h13.67719c.5271 0 .9819 0 1.3564-.0306.3954-.0323.7886-.1036 1.167-.2964.5645-.2876 1.0234-.7465 1.311-1.311.1928-.3784.2641-.7716.2964-1.167.0306-.3745.0306-.8293.0306-1.3564v-.6772c0-.5271 0-.9819-.0306-1.3564-.0323-.3954-.1036-.7886-.2964-1.167-.2876-.5645-.7465-1.0234-1.311-1.311-.3784-.1928-.7716-.2641-1.167-.2964-.3745-.0306-.8293-.0306-1.3565-.0306h-5.8385zm-7.5 8.5c-.55228 0-1 .4477-1 1s.44772 1 1 1h4c.5523 0 1-.4477 1-1s-.4477-1-1-1z" fill-rule="evenodd"/></g></svg>

<svg width="24" height="24" viewBox="0 0 24 24" fill="none" xmlns="http://www.w3.org/2000/svg">
<path d="M5.10258 1.69119C5.51934 2.05358 5.56343 2.68521 5.20104 3.10197C3.18585 5.41956 2.55272 8.52555 3.30761 11.3406C3.45066 11.874 3.13419 12.4224 2.60075 12.5654C2.06732 12.7085 1.51891 12.392 1.37586 11.8586C0.454848 8.4241 1.22483 4.62682 3.69179 1.78966C4.05418 1.37289 4.68581 1.32881 5.10258 1.69119Z" fill="#801ED7"/>
<path d="M8.07298 5.90402C8.41556 5.47082 8.34209 4.84194 7.9089 4.49936C7.4757 4.15678 6.84681 4.23024 6.50423 4.66344C5.10051 6.43849 4.68064 8.73279 5.23872 10.8166C5.3816 11.35 5.9299 11.6667 6.46338 11.5238C6.99686 11.3809 7.31351 10.8326 7.17063 10.2992C6.77084 8.8064 7.07359 7.16778 8.07298 5.90402Z" fill="#801ED7"/>
<path d="M16.0911 4.49936C15.6579 4.84194 15.5844 5.47082 15.927 5.90402C16.9264 7.16778 17.2292 8.8064 16.8294 10.2992C16.6865 10.8326 17.0031 11.3809 17.5366 11.5238C18.0701 11.6667 18.6184 11.35 18.7613 10.8166C19.3194 8.73279 18.8995 6.43849 17.4958 4.66344C17.1532 4.23024 16.5243 4.15678 16.0911 4.49936Z" fill="#801ED7"/>
<path d="M20.3047 1.78966C19.9423 1.37289 19.3107 1.32881 18.8939 1.69119C18.4771 2.05358 18.4331 2.68521 18.7954 3.10197C20.8106 5.41956 21.4438 8.52555 20.6889 11.3406C20.5458 11.874 20.8623 12.4224 21.3957 12.5654C21.9292 12.7085 22.4776 12.392 22.6206 11.8586C23.5416 8.4241 22.7717 4.62682 20.3047 1.78966Z" fill="#801ED7"/>
<path fill-rule="evenodd" clip-rule="evenodd" d="M13 9C13 8.44772 12.5523 8 12 8C11.4477 8 11 8.44772 11 9V14H5.16146C4.63431 14 4.17955 14 3.80497 14.0306C3.40963 14.0629 3.01641 14.1342 2.63803 14.327C2.07354 14.6146 1.6146 15.0735 1.32698 15.638C1.13419 16.0164 1.06287 16.4096 1.03057 16.805C0.999967 17.1795 0.999983 17.6343 1 18.1615V18.8385C0.999983 19.3657 0.999967 19.8205 1.03057 20.195C1.06287 20.5904 1.13419 20.9836 1.32698 21.362C1.6146 21.9265 2.07354 22.3854 2.63803 22.673C3.01641 22.8658 3.40963 22.9371 3.80497 22.9694C4.17951 23 4.63433 23 5.16141 23H18.8386C19.3657 23 19.8205 23 20.195 22.9694C20.5904 22.9371 20.9836 22.8658 21.362 22.673C21.9265 22.3854 22.3854 21.9265 22.673 21.362C22.8658 20.9836 22.9371 20.5904 22.9694 20.195C23 19.8205 23 19.3657 23 18.8386V18.1614C23 17.6343 23 17.1795 22.9694 16.805C22.9371 16.4096 22.8658 16.0164 22.673 15.638C22.3854 15.0735 21.9265 14.6146 21.362 14.327C20.9836 14.1342 20.5904 14.0629 20.195 14.0306C19.8205 14 19.3657 14 18.8385 14H13V9ZM5.5 17.5C4.94772 17.5 4.5 17.9477 4.5 18.5C4.5 19.0523 4.94772 19.5 5.5 19.5H9.5C10.0523 19.5 10.5 19.0523 10.5 18.5C10.5 17.9477 10.0523 17.5 9.5 17.5H5.5Z" fill="#801ED7"/>
</svg>
